images/ism.svg

<svg height="90" viewBox="0 0 150 90" width="150" xmlns="http://www.w3.org/2000/svg"><path d="m37.9879518 14.6410612c-4.1490071 0-9.7359323 1.8026099-14.0526264 5.0872919-5.6615629 4.3080268-8.9353254 10.7491708-8.9353254 19.5416048 0 11.6676599 10.4522487 23.7287673 31.6905878 35.9904344 4.2273074 2.4405786 9.0982997 3.5341461 13.9631831 3.13482 24.7441487-2.0310843 41.5291731-4.3808891 50.2500551-7.0140694 13.559076-4.094023 22.096174-15.5954866 22.096174-29.1524187 0-13.0117476-13.793222-27.587663-25.927711-27.587663-9.1036615 0-9.1036615 0-23.5688586 0-4.8373476 0-4.8373476 0-9.7811309 0-11.9094872 0-11.9094872 0-22.3310243 0-8.9335869 0-8.9335869 0-13.4033234 0z" fill="none" stroke="#000" stroke-width="4" transform="matrix(-1 0 0 -1 148 93.094442)"/></svg>

<?xml version="1.0" encoding="UTF-8"?>
<svg width="150px" height="90px" viewBox="0 0 150 90" version="1.1" xmlns="http://www.w3.org/2000/svg" xmlns:xlink="http://www.w3.org/1999/xlink">
    <!-- Generator: Sketch 53.2 (72643) - https://sketchapp.com -->
    <title>Icon</title>
    <desc>Created with Sketch.</desc>
    <g id="Icon" stroke="none" stroke-width="1" fill="none" fill-rule="evenodd">
        <path d="M37.9879518,14.6410612 C33.8389447,14.6410612 28.2520195,16.4436711 23.9353254,19.7283531 C18.2737625,24.0363799 15,30.4775239 15,39.2699579 C15,50.9376178 25.4522487,62.9987252 46.6905878,75.2603923 C50.9178952,77.7009709 55.7888875,78.7945384 60.6537709,78.3952123 C85.3979196,76.364128 102.182944,74.0143232 110.903826,71.3811429 C124.462902,67.2871199 133,55.7856563 133,42.2287242 C133,29.2169766 119.206778,14.6410612 107.072289,14.6410612 C97.9686275,14.6410612 97.9686275,14.6410612 83.5034304,14.6410612 C78.6660828,14.6410612 78.6660828,14.6410612 73.7222995,14.6410612 C61.8128123,14.6410612 61.8128123,14.6410612 51.3912752,14.6410612 C42.4576883,14.6410612 42.4576883,14.6410612 37.9879518,14.6410612 Z" id="Rectangle" stroke="#000000" stroke-width="4" transform="translate(74.000000, 46.547221) rotate(-180.000000) translate(-74.000000, -46.547221) "></path>
    </g>
</svg>
